svgs/light/square-w.svg

<svg xmlns="http://www.w3.org/2000/svg" viewBox="0 0 448 512"><!-- Font Awesome Pro 6.0.0-alpha2 by @fontawesome - https://fontawesome.com License - https://fontawesome.com/license (Commercial License) --><path d="M384 32H64C28.654 32 0 60.654 0 96V416C0 451.346 28.654 480 64 480H384C419.346 480 448 451.346 448 416V96C448 60.654 419.346 32 384 32ZM416 416C416 433.645 401.645 448 384 448H64C46.355 448 32 433.645 32 416V96C32 78.355 46.355 64 64 64H384C401.645 64 416 78.355 416 96V416ZM356.391 128.625C348 126.094 339.047 131.094 336.609 139.594L288 309.75L239.391 139.594C235.453 125.906 212.547 125.906 208.609 139.594L160 309.75L111.391 139.594C108.953 131.094 100.016 126.125 91.609 128.625C83.109 131.031 78.188 139.906 80.609 148.406L144.609 372.406C148.547 386.094 171.453 386.094 175.391 372.406L224 202.25L272.609 372.406C274.578 379.25 280.859 384 288 384S301.422 379.25 303.391 372.406L367.391 148.406C369.812 139.906 364.891 131.031 356.391 128.625Z"/></svg>

<svg xmlns="http://www.w3.org/2000/svg" viewBox="0 0 448 512"><!--! Font Awesome Pro 6.3.0 by @fontawesome - https://fontawesome.com License - https://fontawesome.com/license (Commercial License) Copyright 2023 Fonticons, Inc. --><path d="M384 32H64C28.65 32 0 60.65 0 96v320c0 35.35 28.65 64 64 64h320c35.35 0 64-28.65 64-64V96C448 60.65 419.3 32 384 32zM416 416c0 17.64-14.36 32-32 32H64c-17.64 0-32-14.36-32-32V96c0-17.64 14.36-32 32-32h320c17.64 0 32 14.36 32 32V416zM356.4 128.6C348 126.1 339 131.1 336.6 139.6L288 309.8l-48.61-170.2c-3.938-13.69-26.84-13.69-30.78 0L160 309.8L111.4 139.6C108.1 131.1 100 126.1 91.61 128.6c-8.5 2.406-13.42 11.28-11 19.78l64 224c3.938 13.69 26.84 13.69 30.78 0L224 202.3l48.61 170.2C274.6 379.3 280.8 384 287.9 384s13.48-4.75 15.45-11.59l64-224C369.8 139.9 364.9 131 356.4 128.6z"/></svg>
